picto/arrow-turning-left-framed.svg

<svg class="color-immutable" width="75" height="30" viewBox="0 0 75 30" fill="none" xmlns="http://www.w3.org/2000/svg"><path d="M75 0H0V30H75V0Z" fill="#2D327D"/><path d="M47.672 3.53978C35.0082 3.53978 23.5769 8.90633 15.5227 17.4803L16.0265 5.87986L12 9.90668V24H26.0937L30.1205 19.9737L18.5432 20.4769L18.5222 20.4781C25.807 12.6718 36.1776 7.78088 47.672 7.78088C52.7231 7.78088 57.5568 8.727 62.0083 10.4477L63.5326 6.49021C58.6078 4.58663 53.2605 3.53978 47.672 3.53978Z" fill="white"/></svg>

<svg class="color-immutable" width="75" height="30" viewBox="0 0 75 30" fill="none" xmlns="http://www.w3.org/2000/svg"><g clip-path="url(#a)"><path d="M75 0H0v30h75V0Z" fill="#2D327D"/><path d="M47.672 3.54c-12.664 0-24.095 5.366-32.15 13.94l.504-11.6L12 9.907V24h14.094l4.026-4.026-11.577.503-.02.001c7.284-7.806 17.655-12.697 29.149-12.697 5.051 0 9.885.946 14.336 2.667l1.525-3.958a43.898 43.898 0 0 0-15.861-2.95Z" fill="#fff"/></g><defs><clipPath id="a"><path fill="#fff" d="M0 0h75v30H0z"/></clipPath></defs></svg>
